X: 204
T: Caroline's Fancy (polka)
N: 034034
N: with love for Caroline Doherty Roddy
C: BB
L: 1/8
M: 2/4
R: polka
Q: 1/4=125
K: A
E|"A"A>B cB | "F#m"Aa fe | "A"cA "E"dB | "A"c>A "E"FE |
"A"A>B cB | "F#m"Aa fe | "A"cB/A/ "D"FA/d/ | "E"BG "A"A :|
e | "A"a>e ce | "Bm"d>B FB | "A"A>B cA | "D"fd/c/ "E"Be/g/ |
"A"a>e ce | "Bm"d>B FB | "A"Ac ed | "E"BG "A"A :|
%%%%%%%%%%%%%%%%%%
